v/0.4.11/design-resources/icons/wf_icons/arrow-down-circle.svg

<?xml version="1.0" encoding="utf-8"?>
<!-- Generated by IcoMoon.io -->
<!DOCTYPE svg PUBLIC "-//W3C//DTD SVG 1.1//EN" "http://www.w3.org/Graphics/SVG/1.1/DTD/svg11.dtd">
<svg version="1.1" xmlns="http://www.w3.org/2000/svg" xmlns:xlink="http://www.w3.org/1999/xlink" width="512" height="512" viewBox="0 0 512 512">
<g>
</g>
	<path d="M256 48c28.1 0 55.3 5.5 81 16.3 24.8 10.5 47 25.5 66.1 44.6 19.1 19.1 34.1 41.4 44.6 66.1 10.8 25.7 16.3 52.9 16.3 81s-5.5 55.3-16.3 81c-10.5 24.8-25.5 47-44.6 66.1s-41.4 34.1-66.1 44.6c-25.6 10.8-52.9 16.3-81 16.3s-55.3-5.5-81-16.3c-24.8-10.5-47-25.5-66.1-44.6s-34.1-41.4-44.6-66.1c-10.8-25.6-16.3-52.9-16.3-81s5.5-55.3 16.3-81c10.5-24.8 25.5-47 44.6-66.1s41.4-34.1 66.1-44.6c25.7-10.8 52.9-16.3 81-16.3zM256 16c-132.5 0-240 107.5-240 240s107.5 240 240 240 240-107.5 240-240-107.5-240-240-240v0z" fill="#595959" />
	<path d="M288 96v226.7l81.4-81.4 45.3 45.3-136 136c-12.5 12.5-32.8 12.5-45.3 0l-137.4-137.3 45.3-45.3 82.7 82.7v-226.7h64z" fill="#595959" />
</svg>

<svg xmlns="http://www.w3.org/2000/svg" width="512" height="512" viewBox="0 0 512 512"><path stroke="#449FDB" d="M0 0"/><path d="M256 48c28.1 0 55.3 5.5 81 16.3 24.8 10.5 47 25.5 66.1 44.6s34.1 41.4 44.6 66.1c10.8 25.7 16.3 52.9 16.3 81s-5.5 55.3-16.3 81c-10.5 24.8-25.5 47-44.6 66.1s-41.4 34.1-66.1 44.6c-25.6 10.8-52.9 16.3-81 16.3s-55.3-5.5-81-16.3c-24.8-10.5-47-25.5-66.1-44.6S74.8 361.7 64.3 337C53.5 311.4 48 284.1 48 256s5.5-55.3 16.3-81c10.5-24.8 25.5-47 44.6-66.1s41.4-34.1 66.1-44.6C200.7 53.5 227.9 48 256 48zm0-32C123.5 16 16 123.5 16 256s107.5 240 240 240 240-107.5 240-240S388.5 16 256 16zm32 80v226.7l81.4-81.4 45.3 45.3-136 136c-12.5 12.5-32.8 12.5-45.3 0L96 285.3l45.3-45.3 82.7 82.7V96h64z" fill="#595959"/></svg>
